logo/streamlit.svg

<?xml version="1.0" encoding="UTF-8"?>
<svg width="256px" height="140px" viewBox="0 0 256 140" version="1.1" xmlns="http://www.w3.org/2000/svg" preserveAspectRatio="xMidYMid">
    <title>Streamlit</title>
    <g>
        <path d="M123.888449,2.18175866 C125.808448,-0.727252886 130.145938,-0.727252886 132.137617,2.18175866 L132.137617,2.18175866 L172.891085,62.932228 L216.212232,127.451015 C215.700685,128.361248 215.110488,129.224984 214.448393,130.032347 C213.996127,130.5708 213.567754,131.080239 213.033567,131.603332 L213.033567,131.603332 L213.023,131.598 L213.032714,131.603332 C212.915594,131.715332 212.803274,131.802852 212.663354,131.909452 L212.513034,132.024025 C212.022644,132.390202 211.517626,132.73637 210.999222,133.061678 C210.579382,133.324505 210.232076,133.556611 209.730316,133.798104 C209.22941,134.039598 208.42813,134.329731 207.945997,134.495277 C207.463011,134.661677 207.301731,134.717997 206.945891,134.796504 C206.768398,134.832344 206.590051,134.86733 206.412558,134.888664 C206.291385,134.909997 206.171065,134.93133 206.049892,134.945837 C206.028558,134.952664 206.000398,134.952664 205.979065,134.960344 L205.979065,134.960344 L205.438052,135.024344 C204.869732,135.080664 204.279226,135.109677 203.675067,135.109677 C153.403712,140.590629 102.685501,140.590629 52.4141462,135.109677 C52.3569729,135.109677 52.3006529,135.109677 52.2434796,135.101997 L52.2434796,135.101997 L52.0728131,135.101144 L52.0728131,135.101144 L51.9943065,135.09517 L51.9166532,135.09517 C51.8594799,135.088344 51.8023066,135.088344 51.7459866,135.080664 L51.7459866,135.080664 L51.6888133,135.080664 C51.6103067,135.073837 51.5386267,135.073837 51.4618268,135.06701 C50.9924937,135.03117 50.4455074,134.912557 50.0538277,134.825517 C49.6612946,134.74701 49.4274814,134.683011 49.1006549,134.611331 C45.231644,133.693998 41.6766595,131.361839 40.0476471,127.585842 C40.0049805,127.486002 39.9691405,127.387015 39.9264739,127.287175 L39.9264739,127.287175 L39.9196472,127.265842 L0.225164964,26.0247307 C-0.841501046,23.1805724 2.07433716,20.3355608 4.91849541,21.68724 C4.99017537,21.68724 5.13182861,21.68724 5.20350857,21.7580666 L5.20350857,21.7580666 L83.1059673,62.9313746 Z M250.894237,21.75892 C253.746076,20.1947609 256.803567,22.8964126 255.807728,25.8830774 L255.807728,25.8830774 L255.807728,26.025584 L216.213085,127.451868 L172.891939,62.932228 L250.823411,21.75892 Z" fill="#FF4B4B"></path>
        <path d="M250.894237,21.75892 L250.823411,21.75892 L172.891939,62.932228 L216.213085,127.451868 L255.807728,26.025584 L255.807728,25.8830774 C256.803567,22.8964126 253.746076,20.1947609 250.894237,21.75892" fill="#7D353B"></path>
        <path d="M132.137617,2.18175866 C130.145938,-0.727252886 125.808448,-0.727252886 123.888449,2.18175866 L83.1059673,62.932228 L127.984446,86.65488 L213.033567,131.603332 C213.567754,131.080239 213.996127,130.5708 214.448393,130.032347 C215.110488,129.224984 215.700685,128.361248 216.212232,127.451015 L172.891085,62.932228 L132.137617,2.18175866 Z" fill="#BD4043"></path>
    </g>
</svg>

<svg viewBox="0 0 256 140" xmlns="http://www.w3.org/2000/svg"><path fill="#FF4B4B" d="M123.88 2.18c1.91-2.91 6.25-2.91 8.24 0v0l40.75 60.75 43.32 64.51c-.52.91-1.11 1.77-1.77 2.58 -.46.53-.89 1.04-1.42 1.57v0l-.02-.01 0 0c-.12.11-.23.19-.37.3l-.16.11c-.5.36-1 .71-1.52 1.03 -.42.26-.77.49-1.27.73 -.51.24-1.31.53-1.79.69 -.49.16-.65.22-1.01.3 -.18.03-.36.07-.54.09 -.13.02-.25.04-.37.05 -.03 0-.05 0-.08.01v0l-.55.06c-.57.05-1.16.08-1.77.08 -50.28 5.48-100.99 5.48-151.27 0 -.06 0-.12 0-.18-.01v0l-.18-.01v0l-.08-.01h-.08c-.06-.01-.12-.01-.18-.02v0h-.06c-.08-.01-.16-.01-.23-.02 -.47-.04-1.02-.16-1.41-.25 -.4-.08-.63-.15-.96-.22 -3.87-.92-7.43-3.25-9.06-7.03 -.05-.1-.08-.2-.13-.3v0l-.01-.03L.02 25.88c-1.07-2.85 1.84-5.69 4.69-4.34 .07 0 .21 0 .28.07v0l77.9 41.17Zm127 19.57c2.85-1.57 5.9 1.13 4.91 4.12v0 .14l-39.6 101.42 -43.33-64.52 77.93-41.18Z"/><path fill="#7D353B" d="M250.89 21.75h-.08l-77.94 41.17 43.32 64.51L255.78 26v-.15c.99-2.99-2.07-5.69-4.92-4.13"/><path fill="#BD4043" d="M132.13 2.18c-2-2.91-6.33-2.91-8.25 0L83.09 62.93l44.87 23.72L213 131.59c.53-.53.96-1.04 1.41-1.58 .66-.81 1.25-1.68 1.76-2.59L172.84 62.9 132.08 2.14Z"/></svg>
